!!!!SEGMENT: pl-kc--40102-iii-1-saf--002-009_zielenski-mikolaj--communiones-totius-anni-in-festo-s-luciae-virginis-et-martyris-principes-persecuti.krn
!!!cenid: 16xx:1540
!!!COM: Zieleński, Mikołaj
!!!COM-rismid: pe30013481
!!!CDT:
!!!CNT: Polish
!!!OTL: Communiones totius anni
!!!OMV: 009
!!!PDT: 1611
!!!AGN:
!!!SMS-siglum: PL-Kc
!!!SMS-shelfmark: 40102 III/1 Saf.
!!!SMS-shelfwork: 002-009 W
!!!SMS-variant:
!!!SMS-altvar:
!!!NIFC-rismid: 990069887
!!!URL-scan: https://cyfrowe.mnk.pl/dlibra/publication/24235/edition/23926/content?ref=desc
!!!ONB-nifc: UWAGA: str. 50-51. Uwaga: W xml metrum 2/1 do źródłowego C| i odpowiednio 3/1 do 3/2
**kern	**kern	**kern	**kern
*group1	*group1	*group1	*group1
*part4	*part3	*part2	*part1
*staff4	*staff3	*staff2	*staff1
*I""Organo	*I""Organo	*I""Organo	*I""Organo
*I''org	*I''org	*I''org	*I''org
*Iorg	*Iorg	*Iorg	*Iorg
*ICklav	*ICklav	*ICklav	*ICklav
*clefF4	*clefC4	*clefC3	*clefC1
*k[b-]	*k[b-]	*k[b-]	*k[b-]
*c:	*c:	*c:	*c:
*M2/1	*M2/1	*M2/1	*M2/1
*met(C|)	*met(C|)	*met(C|)	*met(C|)
=1	=1	=1	=1
!	!	!LO:TX:a:t=Principes perſecuti.	!LO:TX:a:t=In feſto S. Luciae virginis, & martyris. Solus Cantus canet.
2.G\	0r	00r	00r
4G\	.	.	.
2G\	.	.	.
1F	.	.	.
=2-	=2-	=2-	=2-
.	2.d\	.	.
2D/	.	.	.
.	4d\	.	.
2.F\	2d\	.	.
.	[<2c\	.	.
8E\	.	.	.
8D\	.	.	.
=3	=3	=3	=3
2E\	2c\]	1r	0r
2F\	2A/	.	.
2G\	2B-\	2.g\	.
1E-X	4G/	.	.
.	4A/	4g\	.
=4-	=4-	=4-	=4-
.	4B-\	2g\	1r
.	4G/	.	.
1D	4A/	1f	.
.	4G/	.	.
.	4F/	.	2.dd\
.	4E/	.	.
[>2BB-/	2F/	2d\	.
.	.	.	4dd\
=5	=5	=5	=5
2BB-/]	4D/	2f\	2dd\
.	4E/	.	.
1AA	4F/	4a\	1cc
.	4E/	4g\	.
.	2A/	4f\	.
.	.	4e\	.
2D/	2A/	2f\	2a\
=6-	=6-	=6-	=6-
2E\	2G/	2e\	1cc
2F\	2A/	2a\	.
[y1G	4B-\	[y1d	2b-\
.	4A\	.	.
.	4B-\	.	2g/
.	4c\	.	.
=7	=7	=7	=7
!LO:N:xstem:cue:vis=4	!	!LO:N:xstem:cue:vis=4	!
2G\]	1d	2d\]	1b-
2GG/	.	1g	.
1D	2r	.	0.a
.	2.A/	4f\	.
.	.	4e\	.
=8-	=8-	=8-	=8-
1r	.	2f\	.
.	4A/	.	.
.	2A/	2e\	.
2.D/	1F	2B-/	.
.	.	2d\	.
4D/	.	.	.
=9	=9	=9	=9
2D/	2D/	2f\	1a
1C	2A/	4e\	.
.	.	4d\	.
.	2G/	2e\	1r
2AA/	4C/	1f	.
.	4D/	.	.
=10-	=10-	=10-	=10-
2C/	4E/	.	0r
.	4F/	.	.
2C/	2.G/	2e\	.
2BB-/	.	2.d\	.
.	4D/	.	.
4AA/	[y2G/	.	.
4GG/	.	4d\	.
=11	=11	=11	=11
!	!LO:N:xstem:cue	!	!
1AA	4G/]	2c/	2.cc\
.	8F#X/	.	.
.	8E/	.	.
.	2F#/	2A/	.
.	.	.	4cc\
2GG/	4G/	1.d	2cc\
.	4A/	.	.
2.G\	4B-\	.	1b-
.	4c\	.	.
=12-	=12-	=12-	=12-
.	2d\	.	.
4F\	.	.	.
2.E-X\	2.G/	2c/	2g/
.	.	2.B-/	1b-
4D/	4Fny/	.	.
[<2G\	4B-\	.	.
.	8A/	4B-/	.
.	8G/	.	.
=13	=13	=13	=13
4G\]	2A/	2c/	2a\
8F#X\	.	.	.
8E\	.	.	.
2F#\	2A/	2A/	2d/
2G\	2G/	4B-/	4d/
.	.	4c/	4e/
2.D/	1A	4d\	4f/
.	.	4e\	4g/
=14-	=14-	=14-	=14-
.	.	4f\	4a\
8C/	.	8e\	4b-\
8BB-/	.	8d\	.
4AA/	2.A/	4c/	2.cc\
4BB-/	.	4d\	.
2C/	.	2e\	.
.	4A/	.	4c/
[y2C/	4G/	[2c/	4e/
.	4F/	.	4f/
=15	=15	=15	=15
!LO:N:xstem:cue	!	!	!
4C/]	4E/	2c/]	4g/
8BB-/	4F/	.	4a\
8AA/	.	.	.
2.GG/	4G/	2.B-/	4b-\
.	4A/	.	4cc\
.	2.B-\	.	2.dd\
4AA/	.	4c/	.
4BB-/	.	1d	.
4C/	8A/	.	8cc\
.	8G/	.	8b-\
=16-	=16-	=16-	=16-
1D	4F#X/	.	4a\
.	2G/	.	4b-\
.	.	2d\	2a\
.	4F#X/	.	.
!	!	!LO:N:vis=2	!
2.GG/	2G/	1d\	1g
.	2B-\	.	.
4GG/	.	.	.
*custos:D	*custos:A	*custos:f	*custos:g
!!LO:LB:g=original
=17	=17	=17	=17
2D/	2A/	2f\	0r
4D/	2d\	4f\	.
4E\	.	4g\	.
4F\	2c\	1a	.
4E\	.	.	.
4D/	2F/	.	.
4C/	.	.	.
=18-	=18-	=18-	=18-
2BB-/	2G/	1.d	2r
1GG	4B-\	.	2g/
.	4A/	.	.
.	4G/	.	2b-\
.	4F/	.	.
2E-X\	4G/	2g\	4b-\
.	4A/	.	4cc\
=19	=19	=19	=19
2.D/	2B-\	1.f	1dd
.	4A/	.	.
4E\	4G/	.	.
4F\	4A/	.	2a\
4D/	4F/	.	.
2G\	2B-\	1d	2d/
=20-	=20-	=20-	=20-
1.D	4A/	.	2f/
.	4G/	.	.
.	4F/	1A	4f/
.	4E/	.	4g/
.	2F/	.	1a
2C/	2E/	2A/	.
=21	=21	=21	=21
1BB-	2F/	2B-/	2d/
.	2D/	2.G/	1dd
1AA	2E/	.	.
.	.	8F/	.
.	.	8E/	.
.	4D/	2F/	2cc\
.	4C/	.	.
=22-	=22-	=22-	=22-
2GG/	2D/	4G/	2b-\
.	.	4A/	.
2.G\	2.B-\	4B-/	4b-\
.	.	4c/	4g/
.	.	2d\	1b-
8F\	8A/	.	.
8E\	8G/	.	.
4D/	4F/	2d\	.
4E\	4G/	.	.
=23	=23	=23	=23
2F\	1A	2c/	2a\
4E\	.	2f\	2dd\
4D/	.	.	.
2A\	0A	2e\	2cc#X\
2D/	.	2f\	2.dd\
=24-	=24-	=24-	=24-
1AA	.	1e	.
.	.	.	8cc#X\
!	!	!	!LO:SIC:v:s=8bn\
.	.	.	8b-\
.	.	.	2cc#\
1D	4r	4.d\	[<1dd
.	4A/	.	.
.	.	8e\	.
.	2d\	8f\	.
.	.	8g\	.
.	.	4a\	.
=25	=25	=25	=25
2r	4B-\	4d\	1dd]
.	4G/	2g\	.
2D/	2A/	.	.
.	.	4f#X\	.
2G\	4.B-\	4g\	2r
.	.	4d\	.
.	8A/	.	.
4E-X\	4G/	2e-X\	2g/
4C/	2G/	.	.
=26-	=26-	=26-	=26-
2D/	.	2.d\	2dd\
.	4F#X/	.	.
2GG/	4G/	.	4b-\
.	4B-\	2g\	4g/
4r	2A/	.	2a\
4D/	.	4fny\	.
2G\	4.B-\	4g\	2g/
.	.	4d\	.
.	8A/	.	.
=27	=27	=27	=27
!	!	!	!LO:TX:t=P:problem:za mało miar w takcie
4E-X\	4G/	2e-X\	4r
4C/	2G/	.	4g/
2D/	.	2.d\	2dd\
.	4F#X/	.	.
2GG/	4G/	.	4b-\
!	!	!LO:SIC:v:s=2gn\	!
.	4B-\	2g#X\	4g/
!	!	!	!LO:TX:t=P:problem:brak pauzy/nuty 1r
4r	2A/	.	1ryy
!	!	!LO:SIC:v:s=4f#\	!
4D/	.	4f\	.
=28-	=28-	=28-	=28-
2G\	4.B-\	4gny\	.
.	.	4d\	.
.	8A/	.	.
4E-X\	4G/	2e-X\	4r
4C/	2G/	.	4g/
2D/	.	2.d\	2dd\
.	4F#X/	.	.
!	!	!	!LO:N:acc=#
4GG/	2G/	.	2bn\
4G\	.	4d\	.
=29	=29	=29	=29
8C/	2G/	2e\	2cc\
8D/	.	.	.
8E\	.	.	.
8C/	.	.	.
4F\	2A/	2c/	2a\
4FF/	.	.	.
2BB-/	2F/	2d\	2.b-\
!LO:TX:a:t=P:problem:♭ above	!	!LO:TX:t=P:problem:skreślona cauda	!
1E-	1G	1B-	.
.	.	.	4b-\
=30-	=30-	=30-	=30-
.	.	.	2b-\
2D/	2G/	2e\	2cc\
2.G\	2B-\	2.d\	2dd\
.	2G/	.	2b-\
4GG/	.	4e\	.
=31	=31	=31	=31
2.D/	1.A	2f\	4a\
.	.	.	4g/
.	.	1d	4f/
4E\	.	.	4e/
4F\	.	.	2d/
4E\	.	.	.
4D/	2A/	1f	2.dd\
4C/	.	.	.
=32-	=32-	=32-	=32-
1BB-	4B-\	.	.
.	4c\	.	4cc\
.	4d\	2f\	2.b-\
.	4B-\	.	.
2F\	1c	1f	.
.	.	.	8a\
.	.	.	8g\
2FF/	.	.	2a\
=33	=33	=33	=33
1BB-	2d\	2.f\	2b-\
.	4r	.	2dd\
.	4B-\	4d\	.
1r	4A/	4e\	4cc\
.	4A/	4c/	4cc\
.	4G/	4d\	4b-\
.	4G/	4e\	4b-\
=34-	=34-	=34-	=34-
2r	2.d\	2.f\	1a
2D/	.	.	.
.	2A/	4f\	.
4C/	.	4e\	2r
4C/	4E/	4e\	.
4BB-/	8F/	4d\	2dd\
.	8D/	.	.
4BB-/	[<4G/	4d\	.
=35	=35	=35	=35
2AA/	4G/]	2f\	4cc\
.	4F#X/	.	4cc\
2GG/	4G/	2d\	4b-\
.	4C/	.	4b-\
2.D/	4Fny/	2d\	2.a\
.	4G/	.	.
.	4A/	2f\	.
4D/	4F/	.	4a\
=36-	=36-	=36-	=36-
4E\	4G/	4e\	4g/
4E\	4G/	4e\	4g/
4F\	4A/	4c/	4f/
4F\	4A/	4d\	4f/
*custos:G	*custos:B	*custos:B	*custos:d
!!LO:PB:g=original
2.G\	2B-\	2B-/	2d/
.	[y2B-\	2G/	[y2dd\
4GG/	.	.	.
=37	=37	=37	=37
!	!LO:N:xstem:cue	!	!LO:N:xstem:cue
2.BB-/	4B-\]	1.d	4dd\]
.	4A/	.	4cc\
.	2G/	.	2b-\
4C/	.	.	.
2D/	2F#X/	.	2a\
2GG/	2B-\	2d\	2.g/
=38-	=38-	=38-	=38-
1D	1A	1.d	.
.	.	.	8f#X/
.	.	.	8e/
.	.	.	2f#/
2GG/	2G/	.	2.g/
2G\	2B-\	2d\	.
.	.	.	4g/
=39	=39	=39	=39
4E-X\	4B-\	1.g	4b-\
4E-\	4B-\	.	4b-\
4C/	4e\	.	4cc\
4C/	4e\	.	4cc\
2GG/	2d\	.	2.dd\
2G\	2B-\	2d\	.
.	.	.	4g/
=40-	=40-	=40-	=40-
4E-X\	4B-\	0g	4b-\
4E-\	4B-\	.	4b-\
4C/	4e\	.	4cc\
4C/	4e\	.	4cc\
!	!	!	!LO:TX:t=P:problem:brak pauzy/nuty 2r
2G\	2d\	.	2ryy
[y2E-X\	[y2G/	.	[y2ee-X\
=41	=41	=41	=41
!LO:N:xstem:cue	!LO:N:xstem:cue	!	!LO:N:xstem:cue
4E-\]	4G/]	00g	4ee-\]
4E-y\	4G/	.	4ee-y\
2BB-/	2d\	.	2dd\
4C/	1e-X	.	1cc
4D/	.	.	.
4E-X\	.	.	.
4C/	.	.	.
=42-	=42-	=42-	=42-
2G\	2d\	.	2b-\
2.E-X\	2.G/	.	2.ee-\
4E-\	4G/	.	4ee-\
2BB-/	2d\	.	[<2dd\
=43	=43	=43	=43
0C	1.e-X	0g	2dd\]
!	!	!	!LO:SIC:v:s=4ccn\
.	.	.	4cc#X\
.	.	.	4b-\
.	.	.	4ccny\
.	.	.	4g/
.	1c	.	2cc\
=44-	=44-	=44-	=44-
0Gl	.	0gl	0ddl
!	!LO:N:acc=#	!	!
.	4Bn\	.	.
.	4A/	.	.
!	!LO:N:acc=#	!	!
.	1Bnl	.	.
==	==	==	==
*-	*-	*-	*-
!!!system-decoration: *
!!!RDF**kern: > = above
!!!RDF**kern: < = below
!!!RDF**kern: l = terminal long
!!!ENC: Anastazja Marusiak
!!!END: 2021-12-20
!!!ENC: Andrzej Kubiczek
!!!END: 2021-12-22
